icons/trace-32.svg

<svg id="icons" xmlns="http://www.w3.org/2000/svg" viewBox="0 0 32 32"><defs><style>.cls-1{fill:none;}</style></defs><path d="M29,6V3H26V4H18V3H15V6h.02979L13.76508,8H14.948l1.26471-2H18V5h8V6h1V26H26v1H23v1h3v1h3V26H28V6ZM17,5H16V4h1ZM28,28H27V27h1ZM27,4h1V5H27ZM15,27v1H13V27Zm0,1h1v2H15Zm1-1h1.99994v1H16Zm0,0H15V25h1ZM9.25677,17H8.074l1.26471-2h1.1828ZM7.44165,18H8.62439L7.35968,20H6.17694Zm-.71436,3-1.2647,2H4.27991l1.26471-2ZM2.93317,27H5v1H2V26.60547L3.64758,24H4.8302ZM13.0509,11H11.868l1.26471-2h1.18292Zm-1.81518,1h1.18286l-1.26471,2H9.971ZM6,27H8v1H6Zm14,0h2v1H20ZM9,27h2v1H9Z"/><rect class="cls-1" width="32" height="32"/></svg>

<svg xmlns="http://www.w3.org/2000/svg" viewBox="0 0 32 32"><path d="M29 6V3h-3v1h-8V3h-3v3h.03l-1.265 2h1.183l1.265-2H18V5h8v1h1v20h-1v1h-3v1h3v1h3v-3h-1V6zM17 5h-1V4h1zm11 23h-1v-1h1zM27 4h1v1h-1zM15 27v1h-2v-1zm0 1h1v2h-1zm1-1h2v1h-2zm0 0h-1v-2h1zM9.257 17H8.074l1.265-2h1.183zm-1.815 1h1.182L7.36 20H6.177zm-.715 3l-1.264 2H4.28l1.265-2zm-3.794 6H5v1H2v-1.395L3.648 24H4.83zm10.118-16h-1.183l1.265-2h1.183zm-1.815 1h1.183l-1.265 2H9.97zM6 27h2v1H6zm14 0h2v1h-2zM9 27h2v1H9z"/><path fill="none" d="M0 0h32v32H0z"/></svg>
